X:1
T:Title
%%score { 1 | 2 }
L:1/8
Q:1/4=100
M:3/4
K:G
V:1 treble nm="Grand Piano"
V:2 bass 
V:1
 [DB]3 [CA] [B,G]2 | B2 A2 G2 | G F3 z2 | [Ac]3 [GB] [FA]2 | [DF]2 [EG]2 [FA]2 | [GB]6 | %6
w: R.~B.~Mahaffey * *||||||
 [DB]3 [CA] [B,G]2 | B2 A2 G2 | G F3 z2 | [Ac]3 [GB] [FA]2 | [A,DF]2 [DGB]2 [CFA]2 | [B,G]6 | %12
w: ||||||
 [Bd]3 [Ac] [DGB]2 | [Bd]2 [Ac]2 [DGB]2 | [GB] [FA]3 z2 | [Ac]3 [GB] [FA]2 | B2 e2 ^c2 | %17
w: |||||
[M:2/4] [Fd]4 |[M:3/4] [DB]3 [CA] [B,G]2 | B2 A2 G2 | G F3 z2 | [Ac]3 [GB] [FA]2 | %22
w: |||||
 [A,DF]2 [DGB]2 [CFA]2 |[M:7/4] [B,G]6 z2 z2 z4 |] %24
w: ||
V:2
 [G,,G,]3 [G,,G,] [G,,G,]2 | [G,D]2 [G,C]2 [G,B,]2 | [D,B,D] [D,A,D]3 z2 | [D,D]3 [D,D] [D,D]2 | %4
 [D,A,]2 [D,A,]2 [D,D]2 | [G,D]6 | [G,,G,]3 [G,,G,] [G,,G,]2 | [G,D]2 [G,C]2 [G,B,]2 | %8
 [D,B,D] [D,A,D]3 z2 | [D,D]3 [D,D] [D,D]2 | D,2 D,2 D,2 | G,,6 | [G,,G,]3 [G,,G,] G,,2 | %13
 G,2 G,2 G,2 | [D,D] [D,D]3 z2 | [D,D]3 [D,D] [D,D]2 | [G,DG]2 [G,B,G]2[K:bass] [A,E]2 | %17
[M:2/4] [D,A,]4 |[M:3/4] [G,,G,]3 [G,,G,] [G,,G,]2 | [G,D]2 [G,C]2 [G,B,]2 | [D,B,D] [D,A,D]3 z2 | %21
 [D,D]3 [D,D] [D,D]2 | D,2 D,2 D,2 |[M:7/4] G,,6 z2 z2 z4 |] %24

